imgs/logo_language/gulp-svgrepo-com.svg

<!DOCTYPE svg PUBLIC "-//W3C//DTD SVG 1.1//EN" "http://www.w3.org/Graphics/SVG/1.1/DTD/svg11.dtd">
<!-- Uploaded to: SVG Repo, www.svgrepo.com, Transformed by: SVG Repo Mixer Tools -->
<svg fill="#d84a0e" width="225px" height="225px" viewBox="0 0 32.00 32.00" xmlns="http://www.w3.org/2000/svg" stroke="#d84a0e" stroke-width="0.00032">
<g id="SVGRepo_bgCarrier" stroke-width="0"/>
<g id="SVGRepo_tracerCarrier" stroke-linecap="round" stroke-linejoin="round" stroke="#fafafa" stroke-width="0.192"/>
<g id="SVGRepo_iconCarrier">
<path d="M 22.154297 1 C 22.113531 1.0015781 22.081797 1.0129531 22.060547 1.0332031 L 18.345703 5.4453125 L 17.587891 8.0507812 C 17.072891 8.0337813 16.541094 8.0273438 15.996094 8.0273438 C 12.135094 8.0273437 9 8.4363594 9 8.9433594 C 9 10.153359 22.990234 10.153359 22.990234 8.9433594 C 22.990234 8.5683594 21.315391 8.2515625 18.900391 8.1015625 L 19.5 5.9570312 L 22.974609 1.7773438 L 22.980469 1.7714844 C 23.058469 1.6904844 22.906203 1.447375 22.658203 1.234375 C 22.472203 1.073875 22.276594 0.99526563 22.154297 1 z M 17.302734 9.0761719 L 17.289062 9.1171875 C 17.283062 9.1221875 17.283203 9.1287656 17.283203 9.1347656 C 17.283203 9.2097656 17.586078 9.2714844 17.955078 9.2714844 C 18.324078 9.2714844 18.628906 9.2097656 18.628906 9.1347656 L 18.640625 9.0878906 C 18.737625 9.1228906 18.791016 9.1629844 18.791016 9.2089844 C 18.791016 9.3299844 18.416219 9.4288281 17.949219 9.4238281 C 17.495219 9.4238281 17.119141 9.3319375 17.119141 9.2109375 C 17.119141 9.1589375 17.193734 9.1111719 17.302734 9.0761719 z M 22.912109 9.4199219 C 21.061109 10.406922 10.949797 10.413594 9.0917969 9.4335938 L 9.9140625 16.666016 C 10.271062 15.513016 11.173938 13.956375 12.335938 13.484375 C 12.716938 13.328375 13.103797 13.329109 13.466797 13.537109 C 13.781797 13.710109 14.048125 14.072797 14.078125 14.216797 C 14.151125 14.591797 13.957641 14.740234 13.806641 14.740234 C 13.624641 14.740234 13.485531 14.476312 13.394531 14.320312 C 13.146531 13.899313 12.771094 13.881203 12.371094 14.158203 C 11.953094 14.446203 11.589938 14.930563 11.335938 15.351562 C 11.026938 15.858562 10.766375 16.417563 10.609375 16.976562 C 10.518375 17.299563 10.435219 17.817047 10.574219 18.123047 C 10.635219 18.250047 10.725094 18.330078 10.871094 18.330078 C 11.174094 18.330078 11.614172 17.950047 11.826172 17.748047 C 12.098172 17.489047 12.449031 17.085172 12.582031 16.826172 L 12.898438 15.933594 C 13.055438 15.541594 13.496094 15.610594 13.496094 15.933594 C 13.496094 16.521594 13.273578 16.717594 12.892578 17.933594 C 12.541578 19.057594 12.431641 19.421875 12.431641 19.421875 C 12.389641 19.582875 12.225781 19.853516 12.050781 19.853516 C 11.977781 19.853516 11.924531 19.829203 11.894531 19.783203 C 11.833531 19.702203 11.839703 19.479875 11.845703 19.421875 C 11.857703 19.237875 12.226109 18.14175 12.287109 17.96875 C 12.166109 18.09575 12.039391 18.223609 11.900391 18.349609 C 11.573391 18.643609 11.047609 19.029297 10.599609 19.029297 C 10.393609 19.029297 10.261766 18.976625 10.134766 18.890625 L 10.59375 23.478516 C 10.71475 23.766516 12.966641 24.464844 15.931641 24.464844 C 18.902641 24.464844 21.152578 23.761516 21.267578 23.478516 L 21.927734 18.027344 C 21.582734 18.327344 21.184188 18.696859 20.742188 18.880859 C 20.415187 19.013859 19.689453 19.098781 19.689453 18.550781 C 19.689453 18.250781 20.240547 17.6985 20.560547 17.3125 C 20.645547 17.2145 20.84375 16.972703 20.84375 16.845703 C 20.84375 16.678703 20.481719 16.717281 20.136719 16.988281 C 19.942719 17.144281 19.760375 17.352828 19.609375 17.548828 C 19.349375 17.894828 19.210703 18.193406 19.095703 18.441406 C 18.720703 19.259406 18.847922 18.936984 18.544922 19.708984 C 18.241922 20.475984 18.291469 20.388625 18.230469 20.515625 C 18.176469 20.625625 18.097281 20.718391 17.988281 20.775391 C 17.873281 20.833391 17.716141 20.826812 17.619141 20.757812 C 17.565141 20.722812 17.539062 20.647922 17.539062 20.544922 C 17.539062 20.492922 17.546594 20.440672 17.558594 20.388672 C 17.649594 20.036672 18.030797 19.346109 18.466797 18.412109 C 18.563797 18.199109 18.526672 18.262297 18.513672 18.279297 C 18.138672 18.625297 17.853578 18.792766 17.642578 18.884766 C 17.291578 19.034766 16.855625 19.034438 16.765625 18.648438 C 16.759625 18.625438 16.759906 18.601125 16.753906 18.578125 C 16.039906 19.108125 15.283922 19.252328 15.544922 18.111328 C 15.266922 18.584328 14.7815 18.970703 14.1875 18.970703 C 13.9395 18.970703 13.757969 18.890734 13.667969 18.677734 C 13.528969 18.360734 13.746312 17.817688 13.945312 17.304688 C 14.048312 17.045687 14.188953 16.734094 14.376953 16.371094 C 14.473953 16.175094 14.629937 16.059328 14.835938 16.111328 C 14.871937 16.123328 14.903594 16.135344 14.933594 16.152344 C 15.090594 16.256344 15.030172 16.410406 14.951172 16.566406 C 14.721172 16.998406 14.521672 17.315625 14.388672 17.765625 C 14.334672 17.955625 14.266516 18.285156 14.478516 18.285156 C 14.623516 18.285156 14.762484 18.238484 14.896484 18.146484 C 15.174484 17.950484 15.398359 17.657141 15.568359 17.369141 C 15.689359 17.162141 15.835203 16.891156 15.908203 16.660156 C 15.938203 16.562156 15.975578 16.469813 16.017578 16.382812 C 16.084578 16.238813 16.174031 16.089844 16.332031 16.089844 C 16.411031 16.089844 16.476391 16.118781 16.525391 16.175781 C 16.628391 16.302781 16.605781 16.433266 16.550781 16.572266 C 16.429781 16.895266 16.266813 17.184156 16.132812 17.535156 C 16.053812 17.737156 15.96875 17.995984 15.96875 18.208984 C 15.96875 18.404984 16.192859 18.358344 16.380859 18.277344 C 16.525859 18.214344 16.670969 18.117531 16.792969 18.019531 C 16.865969 17.737531 16.846625 17.799891 18.390625 14.087891 C 18.469625 13.897891 18.614766 13.816406 18.759766 13.816406 C 18.832766 13.816406 18.892125 13.840859 18.953125 13.880859 C 19.056125 13.955859 19.057625 14.115328 19.015625 14.236328 C 18.973625 14.346328 18.978187 14.311797 18.742188 14.841797 C 18.427187 15.538797 18.222359 16.041641 17.943359 16.681641 C 17.828359 16.946641 17.477969 17.770797 17.417969 17.966797 C 17.381969 18.093797 17.338516 18.300781 17.478516 18.300781 C 17.805516 18.300781 18.646953 17.545312 18.876953 17.320312 C 18.888953 17.303313 18.907641 17.297156 18.931641 17.285156 C 18.967641 17.175156 19.003203 17.07275 19.033203 16.96875 C 19.118203 16.74975 19.197469 16.494406 19.355469 16.316406 C 19.403469 16.258406 19.457578 16.224609 19.517578 16.224609 C 19.686578 16.224609 19.771484 16.293078 19.771484 16.455078 C 19.771484 16.518078 19.730078 16.7495 19.705078 16.8125 C 19.790078 16.7265 19.879563 16.640688 19.976562 16.554688 C 20.884563 15.753687 21.53125 16.162406 21.53125 16.566406 C 21.53125 16.992406 20.993266 17.585062 20.697266 17.914062 C 20.600266 18.024062 20.400531 18.225203 20.394531 18.283203 C 20.394531 18.358203 20.448344 18.388672 20.527344 18.388672 C 20.648344 18.388672 20.914719 18.186188 21.011719 18.117188 C 21.314719 17.892187 21.724625 17.546688 22.015625 17.304688 L 22.912109 9.4199219 z M 10.929688 24.03125 L 11.832031 25.496094 L 12.183594 30.072266 C 12.183594 30.585266 13.895953 31 16.001953 31 C 18.107953 31 19.820312 30.585266 19.820312 30.072266 L 20.099609 25.449219 L 20.951172 24.03125 C 18.554172 24.99425 13.423687 25.02825 10.929688 24.03125 z"/>
</g>
</svg>

<svg xmlns="http://www.w3.org/2000/svg" width="225" height="225" fill="#d84a0e" stroke="#d84a0e" stroke-width="0" viewBox="0 0 32 32"><path stroke="none" d="M22.154 1a.14.14 0 0 0-.093.033l-3.715 4.412-.758 2.606a48 48 0 0 0-1.592-.024c-3.86 0-6.996.41-6.996.916 0 1.21 13.99 1.21 13.99 0 0-.375-1.675-.691-4.09-.841l.6-2.145 3.475-4.18.005-.006c.078-.08-.074-.324-.322-.537-.186-.16-.381-.239-.504-.234m-4.851 8.076-.014.041q-.008.008-.006.018c0 .075.303.136.672.136s.674-.061.674-.136l.012-.047c.097.035.15.075.15.121 0 .121-.375.22-.842.215-.454 0-.83-.092-.83-.213 0-.052.075-.1.184-.135m5.61.344c-1.852.987-11.963.994-13.821.014l.822 7.232c.357-1.153 1.26-2.71 2.422-3.182.38-.156.768-.155 1.13.053.316.173.582.536.612.68.073.375-.12.523-.271.523-.182 0-.321-.264-.412-.42-.248-.42-.624-.439-1.024-.162-.418.288-.781.773-1.035 1.194a6.6 6.6 0 0 0-.727 1.625c-.09.323-.174.84-.035 1.146.061.127.151.207.297.207.303 0 .743-.38.955-.582.272-.259.623-.663.756-.922l.316-.892c.157-.392.598-.323.598 0 0 .588-.222.784-.603 2-.351 1.124-.461 1.488-.461 1.488-.042.16-.206.432-.381.432q-.11-.001-.156-.07c-.061-.082-.055-.304-.05-.362.013-.184.381-1.28.442-1.453a7 7 0 0 1-.387.38c-.327.295-.852.68-1.3.68a.76.76 0 0 1-.465-.138l.459 4.588c.12.288 2.373.986 5.338.986 2.97 0 5.22-.703 5.336-.986l.66-5.452c-.345.3-.744.67-1.186.854-.327.133-1.053.218-1.053-.33 0-.3.552-.852.872-1.238.085-.098.283-.34.283-.467 0-.167-.362-.129-.707.142a3.4 3.4 0 0 0-.528.56c-.26.347-.398.645-.513.893-.375.818-.248.496-.551 1.268-.303.767-.254.68-.315.807a.56.56 0 0 1-.242.26.38.38 0 0 1-.369-.018c-.054-.035-.08-.11-.08-.213q.001-.078.02-.156c.09-.352.472-1.043.908-1.977.097-.213.06-.15.047-.133-.375.346-.66.514-.871.606-.351.15-.787.15-.877-.237-.006-.023-.006-.047-.012-.07-.714.53-1.47.674-1.21-.467-.277.473-.763.86-1.357.86-.247 0-.429-.08-.519-.293-.139-.317.078-.86.277-1.373.103-.26.244-.57.432-.934.097-.196.253-.312.459-.26a.5.5 0 0 1 .098.041c.157.104.096.258.017.414-.23.432-.43.75-.562 1.2-.054.19-.122.52.09.52a.73.73 0 0 0 .417-.14c.278-.196.502-.489.672-.777a4 4 0 0 0 .34-.709q.046-.147.11-.277c.067-.144.156-.293.314-.293q.119 0 .193.086c.103.127.08.257.026.396-.121.323-.284.612-.418.963-.08.202-.164.461-.164.674 0 .196.224.15.412.068.145-.063.29-.16.412-.257.073-.282.054-.22 1.598-3.932.079-.19.224-.272.369-.272a.34.34 0 0 1 .193.065c.103.075.105.234.063.355-.042.11-.038.076-.274.606-.315.697-.52 1.2-.799 1.84-.115.265-.465 1.089-.525 1.285-.036.127-.08.334.06.334.328 0 1.169-.756 1.399-.98.012-.018.03-.024.055-.036.036-.11.071-.212.101-.316.085-.22.164-.475.322-.653.048-.058.103-.091.163-.091.169 0 .253.068.253.23 0 .063-.04.295-.066.358q.127-.129.272-.258c.908-.801 1.554-.393 1.554.011 0 .426-.538 1.02-.834 1.348-.097.11-.296.311-.302.37 0 .074.053.105.132.105.121 0 .388-.203.485-.272.303-.225.713-.57 1.004-.812zM10.93 24.03l.902 1.465.352 4.576c0 .513 1.712.928 3.818.928s3.818-.415 3.818-.928l.28-4.623.851-1.418c-2.397.963-7.527.997-10.021 0"/></svg>
